X:1
T:Title
%%score { 1 | 2 }
L:1/8
M:3/4
K:Db
V:1 treble nm="Grand Piano"
V:2 bass 
V:1
 z2 z[Q:1/4=92] F F>[EG] | [FA]3 [FA] [GB]>[FA] | [DF]3 [DF] [FA]>[EG] | [CE]3 [EG] [DF]>[EG] | %4
[M:3/8] [FA]3 | DF>[FA] |[M:3/4] [Fd]3 [FA] [Ac]>B | B3 B E>F | A3 [EG] [DF]>[CE] |[M:3/8] D3 | %10
 [FA][Fd]>[Ac] |[M:3/4] [GB]3 [GB] (3[Bd][Ac][GB] | [FA]3 [FA] [GB]>[FA] | %13
 [EG]2- (3[EG]FG [FA]>[EG] |[M:3/8] F3 | DF>[FA] |[M:3/4] [Fd]3 [FA] [Ac]>B | B3 B (3[Bd]cB | %18
 A3 A (3cBc |[M:3/8] [Fd]3 |] %20
V:2
 z2 z [D,A,D] [D,A,D]>[D,A,] | [D,D]3 [D,D] [D,D]>[D,D] | [D,A,]3 [D,A,] [A,,A,]>[A,,A,] | %3
 [A,,A,]3 [A,,A,] [D,A,]>[D,A,] |[M:3/8] [D,D]3 | [D,F,][D,A,D]>[D,A,] | %6
[M:3/4] [D,A,]3 [D,D] [G,D]>[K:treble][G,DG] | [G,DG]3 [G,DG] [A,C]>[A,D] | %8
 [A,F]3[K:bass] [A,,A,] [A,,A,]>[A,,G,] |[M:3/8] [D,F,]3 | [D,A,][D,A,]>[D,D] | %11
[M:3/4] [G,D]3 [G,D] (3:2:2[G,D]2 [G,D] | [D,D]3 [D,D] [D,D]>[D,D] | %13
 [A,C]2 (3z =D[A,CE] [A,,A,]>[A,,A,] |[M:3/8] [D,A,D]3 | [D,F,][D,A,D]>[D,A,] | %16
[M:3/4] [D,A,]3 [D,D] [G,D]>[G,DG] | [G,DG]3 [G,DG] (3[G,D]-[G,DA][K:treble][G,DG] | %18
 [A,DF]3 [A,DF] (3[A,EG][A,EG][A,G] |[M:3/8][K:bass] [D,A,]3 |] %20

